client/src/assets/logo.svg

<svg width="165" height="35" viewBox="0 0 165 35" fill="none" xmlns="http://www.w3.org/2000/svg">
<path d="M45.256 28.308C43.8187 28.308 42.4747 28.0467 41.224 27.524C39.992 27.0013 38.9093 26.2827 37.976 25.368C37.0427 24.4347 36.3147 23.352 35.792 22.12C35.288 20.8693 35.036 19.5347 35.036 18.116C35.036 16.6973 35.288 15.3813 35.792 14.168C36.3147 12.936 37.0333 11.8627 37.948 10.948C38.8813 10.0147 39.964 9.296 41.196 8.792C42.428 8.26933 43.7627 8.008 45.2 8.008C46.6373 8.008 47.972 8.26933 49.204 8.792C50.436 9.296 51.5187 10.0147 52.452 10.948C53.3853 11.8627 54.104 12.936 54.608 14.168C55.1307 15.4 55.392 16.7253 55.392 18.144C55.392 19.5627 55.1307 20.888 54.608 22.12C54.104 23.352 53.3853 24.4347 52.452 25.368C51.5373 26.2827 50.464 27.0013 49.232 27.524C48 28.0467 46.6747 28.308 45.256 28.308ZM54.132 29.456L45.116 20.44L47.412 18.116L56.456 27.16L54.132 29.456ZM45.2 24.752C46.4507 24.752 47.5427 24.472 48.476 23.912C49.428 23.352 50.1653 22.5773 50.688 21.588C51.2293 20.5987 51.5 19.4413 51.5 18.116C51.5 17.1453 51.3413 16.2587 51.024 15.456C50.7253 14.6533 50.296 13.9627 49.736 13.384C49.176 12.7867 48.5133 12.3293 47.748 12.012C46.9827 11.6947 46.1333 11.536 45.2 11.536C43.968 11.536 42.876 11.816 41.924 12.376C40.9907 12.9173 40.2533 13.6827 39.712 14.672C39.1893 15.6613 38.928 16.8093 38.928 18.116C38.928 19.1053 39.0773 20.0107 39.376 20.832C39.6933 21.6533 40.1227 22.3533 40.664 22.932C41.224 23.5107 41.8867 23.9587 42.652 24.276C43.436 24.5933 44.2853 24.752 45.2 24.752ZM64.3607 28.28C63.1661 28.28 62.1021 28.028 61.1688 27.524C60.2541 27.02 59.5354 26.32 59.0128 25.424C58.4901 24.528 58.2288 23.492 58.2288 22.316V14.476H61.9248V22.232C61.9248 22.792 62.0181 23.2773 62.2048 23.688C62.3914 24.08 62.6714 24.3787 63.0448 24.584C63.4181 24.7893 63.8568 24.892 64.3607 24.892C65.1261 24.892 65.7234 24.6587 66.1528 24.192C66.5821 23.7253 66.7968 23.072 66.7968 22.232V14.476H70.4648V22.316C70.4648 23.5107 70.2034 24.556 69.6808 25.452C69.1768 26.348 68.4581 27.048 67.5248 27.552C66.6101 28.0373 65.5554 28.28 64.3607 28.28ZM73.3857 28V14.476H77.0817V28H73.3857ZM75.2337 12.292C74.6364 12.292 74.1417 12.096 73.7497 11.704C73.3577 11.2933 73.1617 10.7893 73.1617 10.192C73.1617 9.61333 73.3577 9.11867 73.7497 8.708C74.1417 8.29733 74.6364 8.092 75.2337 8.092C75.8497 8.092 76.3444 8.29733 76.7177 8.708C77.1097 9.11867 77.3057 9.61333 77.3057 10.192C77.3057 10.7893 77.1097 11.2933 76.7177 11.704C76.3444 12.096 75.8497 12.292 75.2337 12.292ZM86.715 28.28C85.3337 28.28 84.0924 27.972 82.991 27.356C81.8897 26.74 81.0217 25.9 80.387 24.836C79.7524 23.772 79.435 22.5773 79.435 21.252C79.435 19.908 79.7524 18.704 80.387 17.64C81.0217 16.576 81.8897 15.736 82.991 15.12C84.111 14.4853 85.3524 14.168 86.715 14.168C87.779 14.168 88.759 14.364 89.655 14.756C90.551 15.148 91.3257 15.708 91.979 16.436L89.627 18.816C89.2724 18.424 88.843 18.1253 88.339 17.92C87.8537 17.7147 87.3124 17.612 86.715 17.612C86.043 17.612 85.4364 17.7707 84.895 18.088C84.3724 18.3867 83.9524 18.8067 83.635 19.348C83.3364 19.8707 83.187 20.496 83.187 21.224C83.187 21.9333 83.3364 22.568 83.635 23.128C83.9524 23.6693 84.3724 24.0987 84.895 24.416C85.4364 24.7147 86.043 24.864 86.715 24.864C87.331 24.864 87.8817 24.7613 88.367 24.556C88.871 24.332 89.3004 24.0147 89.655 23.604L92.035 25.984C91.3444 26.7307 90.551 27.3 89.655 27.692C88.759 28.084 87.779 28.28 86.715 28.28ZM102.736 28L97.5003 21.028L102.708 14.476H106.936L100.832 21.868L100.972 20.076L107.216 28H102.736ZM94.1123 28V7.756H97.7803V28H94.1123ZM115.009 28.28C113.423 28.28 112.06 28.0093 110.921 27.468C109.801 26.9267 108.784 26.1147 107.869 25.032L110.389 22.512C110.968 23.2773 111.64 23.8747 112.405 24.304C113.171 24.7147 114.104 24.92 115.205 24.92C116.195 24.92 116.979 24.724 117.557 24.332C118.155 23.94 118.453 23.3987 118.453 22.708C118.453 22.1107 118.285 21.6253 117.949 21.252C117.613 20.8787 117.165 20.5613 116.605 20.3C116.064 20.0387 115.457 19.8053 114.785 19.6C114.132 19.376 113.469 19.124 112.797 18.844C112.144 18.564 111.537 18.2187 110.977 17.808C110.436 17.3787 109.997 16.8373 109.661 16.184C109.325 15.512 109.157 14.672 109.157 13.664C109.157 12.4693 109.447 11.452 110.025 10.612C110.604 9.772 111.397 9.128 112.405 8.68C113.413 8.232 114.552 8.008 115.821 8.008C117.165 8.008 118.379 8.26 119.461 8.764C120.544 9.268 121.431 9.92133 122.121 10.724L119.601 13.244C119.023 12.6093 118.425 12.1427 117.809 11.844C117.212 11.5453 116.531 11.396 115.765 11.396C114.888 11.396 114.197 11.564 113.693 11.9C113.189 12.236 112.937 12.7213 112.937 13.356C112.937 13.8973 113.105 14.336 113.441 14.672C113.777 15.008 114.216 15.2973 114.757 15.54C115.317 15.7827 115.924 16.016 116.577 16.24C117.249 16.464 117.912 16.716 118.565 16.996C119.237 17.276 119.844 17.64 120.385 18.088C120.945 18.536 121.393 19.1147 121.729 19.824C122.065 20.5147 122.233 21.3733 122.233 22.4C122.233 24.2293 121.589 25.6667 120.301 26.712C119.013 27.7573 117.249 28.28 115.009 28.28ZM126.835 28V8.848H130.503V28H126.835ZM123.671 17.696V14.476H133.667V17.696H123.671ZM141.057 28.28C139.825 28.28 138.715 27.972 137.725 27.356C136.736 26.74 135.961 25.9 135.401 24.836C134.841 23.772 134.561 22.5773 134.561 21.252C134.561 19.908 134.841 18.704 135.401 17.64C135.961 16.576 136.736 15.736 137.725 15.12C138.715 14.504 139.825 14.196 141.057 14.196C142.028 14.196 142.896 14.392 143.661 14.784C144.427 15.176 145.033 15.7267 145.481 16.436C145.948 17.1267 146.2 17.9107 146.237 18.788V23.66C146.2 24.556 145.948 25.3493 145.481 26.04C145.033 26.7307 144.427 27.2813 143.661 27.692C142.896 28.084 142.028 28.28 141.057 28.28ZM141.729 24.892C142.756 24.892 143.587 24.556 144.221 23.884C144.856 23.1933 145.173 22.3067 145.173 21.224C145.173 20.5147 145.024 19.8893 144.725 19.348C144.445 18.788 144.044 18.3587 143.521 18.06C143.017 17.7427 142.42 17.584 141.729 17.584C141.057 17.584 140.46 17.7427 139.937 18.06C139.433 18.3587 139.032 18.788 138.733 19.348C138.453 19.8893 138.313 20.5147 138.313 21.224C138.313 21.952 138.453 22.596 138.733 23.156C139.032 23.6973 139.433 24.1267 139.937 24.444C140.46 24.7427 141.057 24.892 141.729 24.892ZM144.977 28V24.36L145.565 21.056L144.977 17.808V14.476H148.617V28H144.977ZM156.118 28.112L150.462 14.476H154.438L158.19 24.892H156.846L160.738 14.476H164.742L158.722 28.112H156.118ZM152.366 33.656L156.482 24.948L158.722 28.112L156.258 33.656H152.366Z" fill="white"/>
<path fill-rule="evenodd" clip-rule="evenodd" d="M0.70092 11.8607C8.04663e-08 13.1412 0 14.6859 0 17.7753V19.8288C0 25.0948 1.60933e-07 27.728 1.58162 29.3639C3.16325 31 5.70883 31 10.8 31H16.2C21.2911 31 23.8368 31 25.4183 29.3639C27 27.728 27 25.0948 27 19.8288V17.7753C27 14.6859 27 13.1412 26.2991 11.8607C25.5982 10.5802 24.3177 9.78544 21.7566 8.19596L19.0566 6.52027C16.3493 4.84009 14.9957 4 13.5 4C12.0043 4 10.6507 4.84009 7.94344 6.52027L5.24344 8.19598C2.68238 9.78544 1.40184 10.5802 0.70092 11.8607ZM10.0529 22.0866C9.6037 21.7536 8.96958 21.8478 8.63659 22.2971C8.30361 22.7464 8.39784 23.3805 8.84708 23.7134C10.1598 24.6865 11.7653 25.2625 13.5 25.2625C15.2347 25.2625 16.8402 24.6865 18.1529 23.7134C18.6022 23.3805 18.6964 22.7464 18.3634 22.2971C18.0305 21.8478 17.3964 21.7536 16.9471 22.0866C15.9637 22.8154 14.777 23.2375 13.5 23.2375C12.223 23.2375 11.0363 22.8154 10.0529 22.0866Z" fill="white"/>
</svg>

<svg version="1.2" xmlns="http://www.w3.org/2000/svg" viewBox="0 0 165 35" width="165" height="35">
	<style>
		tspan { white-space:pre } 
		.s0 { fill: #ffffff } 
		.t1 { font-size: 31px;fill: #ffffff;font-weight: 900;font-family: "Livvic-Black", "Livvic" } 
	</style>
	<g id="Layer 1">
		<path fill-rule="evenodd" class="s0" d="m0.7 11.86c-0.7 1.28-0.7 2.83-0.7 5.92v2.05c0 5.26 0 7.9 1.58 9.53 1.58 1.64 4.13 1.64 9.22 1.64h5.4c5.09 0 7.64 0 9.22-1.64 1.58-1.63 1.58-4.27 1.58-9.53v-2.05c0-3.09 0-4.64-0.7-5.92-0.7-1.28-1.98-2.07-4.54-3.66l-2.7-1.68c-2.71-1.68-4.06-2.52-5.56-2.52-1.5 0-2.85 0.84-5.56 2.52l-2.7 1.68c-2.56 1.59-3.84 2.38-4.54 3.66zm9.35 10.23c-0.45-0.34-1.08-0.24-1.41 0.21-0.34 0.45-0.24 1.08 0.21 1.41 1.31 0.98 2.92 1.55 4.65 1.55 1.73 0 3.34-0.57 4.65-1.55 0.45-0.33 0.55-0.96 0.21-1.41-0.33-0.45-0.96-0.55-1.41-0.21-0.99 0.73-2.17 1.15-3.45 1.15-1.28 0-2.46-0.42-3.45-1.15z"/>
		<text id="TripNest" style="transform: matrix(.993,0,0,.993,35.387,5.16)" >
			<tspan x="0" y="22.9" class="t1">T</tspan><tspan  y="22.9" class="t1">r</tspan><tspan  y="22.9" class="t1">i</tspan><tspan  y="22.9" class="t1">p</tspan><tspan  y="22.9" class="t1">N</tspan><tspan  y="22.9" class="t1">e</tspan><tspan  y="22.9" class="t1">s</tspan><tspan  y="22.9" class="t1">t</tspan><tspan  y="22.9" class="t1">
</tspan>
		</text>
	</g>
</svg>
